resources/svg/major-footer.svg

<svg xmlns="http://www.w3.org/2000/svg" viewBox="0 0 20 20" fill="currentColor"><path d="M1 2a1 1 0 0 1 1-1h2v2h-1v1h-2v-2zm17-1a1 1 0 0 1 1 1v2h-2v-1h-1v-2h2zm1 16.5v-6.5h-18v6.5a1.5 1.5 0 0 0 1.5 1.5h15a1.5 1.5 0 0 0 1.5-1.5zm0-11.5v3h-2v-3h2zm-16 3v-3h-2v3h2zm11-8v2h-3v-2h3zm-5 2v-2h-3v2h3z"/></svg>

<svg xmlns="http://www.w3.org/2000/svg" viewBox="0 0 20 20" fill="currentColor"><path d="M1 2a1 1 0 0 1 1-1h2v2H3v1H1V2zm17-1a1 1 0 0 1 1 1v2h-2V3h-1V1h2zm1 16.5V11H1v6.5A1.5 1.5 0 0 0 2.5 19h15a1.5 1.5 0 0 0 1.5-1.5zM19 6v3h-2V6h2zM3 9V6H1v3h2zm11-8v2h-3V1h3zM9 3V1H6v2h3z"/></svg>
